public/svg/taro.svg

<svg width="300" height="300" viewBox="0 0 300 300" fill="none" xmlns="http://www.w3.org/2000/svg">
  <g opacity="0.995">
    <path fill-rule="evenodd" clip-rule="evenodd"
      d="M198.377 47C232.252 47 266.125 47 300 47C291.51 78.5232 282.946 110.045 274.309 141.565C257.461 142.694 240.524 143.074 223.498 142.705C205.212 143.084 186.942 142.704 168.69 141.565C172.883 125.598 177.07 109.647 181.249 93.713C185.038 80.4914 188.655 67.1992 192.097 53.8361C193.65 50.962 195.743 48.6834 198.377 47Z"
      fill="#73C9FF" />
    <path fill-rule="evenodd" clip-rule="evenodd"
      d="M150.918 93.2815C146.059 94.1612 141.105 94.7304 136.055 94.9894C134.419 95.5192 133.086 96.4681 132.053 97.8359C125.277 117.235 119.56 136.971 114.903 157.043C114.467 157.677 113.894 158.055 113.189 158.182C75.459 158.182 37.7295 158.182 0 158.182C0 155.904 0 153.628 0 151.351C8.39493 123.458 16.5887 95.3721 24.5814 67.0937C26.3454 64.9551 28.4414 63.2472 30.8695 61.97C73.9395 61.0212 117.005 61.211 160.064 62.5393C157.002 72.8238 153.953 83.0713 150.918 93.2815Z"
      fill="#0027B4" />
    <path fill-rule="evenodd" clip-rule="evenodd"
      d="M150.67 93.9649C161.022 93.9649 171.373 93.9649 181.724 93.9649C177.514 109.877 173.297 125.805 169.073 141.75C187.46 142.887 205.862 143.266 224.281 142.888C214.072 179.248 204.104 215.656 194.376 252.112C158.339 252.112 122.299 252.112 86.262 252.112C95.4286 221.149 104.248 190.051 112.715 158.816C113.425 158.69 114.001 158.311 114.44 157.678C119.125 137.621 124.876 117.9 131.693 98.5158C132.732 97.1489 134.072 96.2007 135.719 95.6715C140.799 95.4126 145.782 94.8437 150.67 93.9649Z"
      fill="#157DFE" />
  </g>
</svg>

<svg width="300" height="300" viewBox="0 0 300 300" fill="none" xmlns="http://www.w3.org/2000/svg"><g opacity=".995" fill-rule="evenodd" clip-rule="evenodd"><path d="M198.377 47H300a22431.153 22431.153 0 0 1-25.691 94.565 573.674 573.674 0 0 1-50.811 1.14 660.027 660.027 0 0 1-54.808-1.14c4.193-15.967 8.38-31.918 12.559-47.852a1530.5 1530.5 0 0 0 10.848-39.877c1.553-2.874 3.646-5.153 6.28-6.836z" fill="#73C9FF"/><path d="M150.918 93.281a116.74 116.74 0 0 1-14.863 1.708 7.98 7.98 0 0 0-4.002 2.847 570.273 570.273 0 0 0-17.15 59.207c-.436.634-1.009 1.012-1.714 1.139H0v-6.831a5197.393 5197.393 0 0 0 24.581-84.257 20.374 20.374 0 0 1 6.288-5.124 2443.79 2443.79 0 0 1 129.195.57 73083.359 73083.359 0 0 0-9.146 30.741z" fill="#0027B4"/><path d="M150.67 93.965h31.054c-4.21 15.912-8.427 31.84-12.651 47.785a671.03 671.03 0 0 0 55.208 1.138 8736.928 8736.928 0 0 0-29.905 109.224H86.262a4194.948 4194.948 0 0 0 26.453-93.296c.71-.126 1.286-.505 1.725-1.138a566.81 566.81 0 0 1 17.253-59.162 8.02 8.02 0 0 1 4.026-2.845c5.08-.258 10.063-.827 14.951-1.706z" fill="#157DFE"/></g></svg>
